X:913
T:Reel 913
M:4/4
K:Gmaj
L:1/8
dc|B>G (3GGG BGGA|B>G (3GFG d2cB|c>A (3AAA fcAc|c>A (3AAA c2Bc|B<G (3GGG B>G (3GFG |BGGB c2Bc|ecAc BGBc|dBcA BGAf| (3BcB gB fBdB|GBdg bgdc| (3BcB gB fBfB|cafA fAfA| (3BcB dB gBgf|dBdB  (3cBA FA|GABc dedc|Bdef gfge|
